X:1
T:Title
%%score 1 ( 2 3 )
L:1/8
Q:1/4=115
M:4/4
K:C
V:1 treble nm="Grand Piano, Unnamed-000"
V:2 bass nm="Choir Pad, Laban, SM"
V:3 bass 
V:1
 [CE]3 [DF] [EG]2 [EG]2 | [EG]2 [Ec]2 [EG]4 | [Ge]4 [Gd]2 [Ec]2 | [DB]2 [DA]2 [DG]4 | %4
w: By~Lowell~Mason,~1830 * * *||||
 [CE]3 [DF] [EG]2 [EG]2 | [EG]2 [Gc]2 [FB]4 | [Ec]4 [Gd]4 | [Gd]4 [Ge]2 [Gc]2 | %8
w: ||||
 [EG]2 [FB]2 [Ec]4- | [Ec]4 z4 |] %10
w: ||
V:2
 [C,C]4 [C,C]2 [C,C]2 | [C,C]2 [C,G,]2 [C,C]4 | [C,C]4 [B,,G,]2 [C,G,]2 | [D,G,]2 [D,C]2 [G,B,]4 | %4
 [C,C]4 [C,C]2 [C,C]2 | [C,C]2 [E,G,]2 [D,G,]4 | G,2 C2 [G,B,]4 | [G,B,]4 C2 [E,C]2 | %8
 [G,C]2 [G,,G,]2 [C,G,]4- | [C,G,]4 z4 |] %10
V:3
 x8 | x8 | x8 | x8 | x8 | x8 | C,4 z4 | x8 | x8 | x8 |] %10

